X:3714
T:Littlehohone (?)
O:england
S:Midi file off website
M:4/4
L:1/4
K:Dm
(3D/F/A/|B2 cB BABA|G^FGA BA z2|DEFD A<GF>E|(3DFA D>^c d2 z/ (3D/F/A/|
B2 cB BABA|G^FGA BA z2|DEFD A<GF>E|(3DFA D>^c d2 z/||
A|A=B^cA d2 de|dcBA BA z2|dcBA BAG^F|G2 F>E D2 (3DFA|
B2 cB BABA|G^FGA BA z2|DEFD A<GF>E|(3DFA D>^c d2 z/||


